X:1
T:Mussels in the Corner
M:4/4
L:1/8
K:C
 C G,C DE G A2| GE CD ED D2| C G,C DE G A2| GE DE C2 C2| cB AG DF A2|\
 GE C D/2D/2 ED D2| cB AG EF A2| GE DE C2 C2| CB, A, G,C DE F| GE DC ED D2|\
 CB, A, G,C DE F| GE DE C2 C2|
